X:46
T: Die dienende Schwester
N: Q0075A
O: Mitteleuropa, Deutschland (BRD) , Wuerttemberg, Kr. Balingen, Eyach
N: Tanz - Anweisung abgedruckt.
R: Ballade, Adelige als Dienstmagd, Tod; Kinder - Spiel, Tanz
M: 3/4
L: 1/16
K: C
G2A2G2 | E4C2C2E2E2 | D4z2
B2BBB2 | F4F4A2A2 | G4z2
G2A2B2 | c4G2G2B2B2 | A4z2
A2AAA2 | G4G4F2G2 | E4z2

